src/assets/outline/Snapchat.svg

<svg width="24" height="24" viewBox="0 0 24 24"  xmlns="http://www.w3.org/2000/svg">
<path d="M12 18.1803C10.98 18.1803 10.37 17.8003 9.97 17.5503C9.78 17.4303 9.64 17.3503 9.5 17.3003C9.17 17.1903 8.86 17.1803 8.59 17.1603C8.28 17.1503 7.97001 17.1403 7.70001 16.9603C7.42001 16.7703 7.33001 16.5003 7.29001 16.3203C7.27001 16.3103 7.25001 16.3103 7.23001 16.3003C6.97001 16.2303 6.67999 16.1503 6.32999 15.9603C5.80999 15.6703 5.75 15.2803 5.75 15.0703C5.76 14.8703 5.84 14.4903 6.34 14.2603C7.55 13.6803 7.97001 12.8703 8.10001 12.5203C7.99001 12.4503 7.85999 12.3703 7.73999 12.2903L7.42999 12.0903C6.60999 11.5203 6.75001 10.8403 6.85001 10.5803C7.01001 10.1403 7.41999 9.8703 7.92999 9.8703C8.02999 9.8703 8.11999 9.8803 8.20999 9.9003C8.22999 9.9003 8.24001 9.91031 8.26001 9.91031C8.26001 9.60031 8.26 9.3303 8.28 9.0903C8.38 8.0203 8.76 7.4503 9.13 7.0303C9.45 6.6703 10.36 5.82031 11.98 5.82031C13.09 5.82031 14.13 6.25031 14.82 7.00031C15.22 7.47031 15.59 8.03029 15.68 9.08029C15.7 9.36029 15.71 9.6403 15.71 9.9003C15.72 9.9003 15.72 9.9003 15.73 9.9003C15.77 9.8803 15.9 9.86029 16.03 9.86029C16.54 9.86029 16.95 10.1403 17.11 10.5903C17.21 10.8403 17.35 11.5103 16.53 12.0903C16.47 12.1303 16.36 12.2103 16.22 12.2903C16.09 12.3703 15.97 12.4503 15.87 12.5203C16.01 12.8803 16.44 13.6803 17.64 14.2703C18.12 14.5303 18.22 14.8603 18.22 15.1003C18.22 15.3503 18.12 15.7003 17.64 15.9603C17.29 16.1503 16.99 16.2403 16.74 16.3103C16.72 16.3103 16.7 16.3203 16.67 16.3303C16.62 16.5403 16.53 16.7803 16.28 16.9503C15.99 17.1403 15.69 17.1503 15.39 17.1603C15.11 17.1703 14.8 17.1903 14.45 17.3003C14.33 17.3403 14.19 17.4303 14.02 17.5303C13.6 17.8103 13.01 18.1803 12 18.1803ZM8.69 15.6703C9.03 15.6903 9.47 15.7203 9.97 15.8803C10.27 15.9803 10.51 16.1203 10.77 16.2803C11.1 16.4903 11.41 16.6803 12 16.6803C12.58 16.6803 12.89 16.4903 13.24 16.2703C13.49 16.1203 13.73 15.9803 14.02 15.8803C14.56 15.7103 15.01 15.6803 15.32 15.6703C15.38 15.4803 15.51 15.2803 15.75 15.1203C15.83 15.0703 15.9 15.0303 15.99 14.9903C14.57 13.9103 14.37 12.6403 14.36 12.5703C14.36 12.5603 14.36 12.5403 14.36 12.5303C14.33 12.3403 14.3 11.9403 14.68 11.5703C14.57 11.5203 14.48 11.4503 14.42 11.3803C14.3 11.2603 14.17 11.0403 14.2 10.6903C14.22 10.2703 14.26 9.7103 14.22 9.2103C14.16 8.5403 13.96 8.2603 13.73 7.9903C13.51 7.7503 12.97 7.3103 12.02 7.3103C10.99 7.3103 10.44 7.84031 10.3 8.00031C10.08 8.25031 9.88001 8.54032 9.82001 9.20032C9.79001 9.57032 9.78999 10.0503 9.82999 10.6003C9.83999 10.6503 9.84 10.7103 9.84 10.7403C9.86 11.0303 9.72999 11.2503 9.60999 11.3703C9.55999 11.4303 9.47001 11.5003 9.35001 11.5603C9.74001 11.9303 9.70001 12.3403 9.67001 12.5303C9.67001 12.5403 9.67001 12.5503 9.67001 12.5703C9.66001 12.6303 9.45999 13.9003 8.04999 14.9803C8.12999 15.0203 8.21999 15.0603 8.29999 15.1203C8.50999 15.2803 8.63 15.4903 8.69 15.6703ZM17.31 15.3103L16.96 14.6503C16.96 14.6503 16.95 14.6503 16.95 14.6603L17.31 15.3103L16.95 14.6603L17.31 15.3103Z" />
<path d="M12 22.75C6.07 22.75 1.25 17.93 1.25 12C1.25 6.07 6.07 1.25 12 1.25C17.93 1.25 22.75 6.07 22.75 12C22.75 17.93 17.93 22.75 12 22.75ZM12 2.75C6.9 2.75 2.75 6.9 2.75 12C2.75 17.1 6.9 21.25 12 21.25C17.1 21.25 21.25 17.1 21.25 12C21.25 6.9 17.1 2.75 12 2.75Z" />
</svg>

<?xml version="1.0" encoding="UTF-8"?>
<svg width="24" height="24" viewBox="0 0 24 24" xmlns="http://www.w3.org/2000/svg">
 <path d="m12 18.18c-1.02 0-1.63-0.38-2.03-0.63-0.19-0.12-0.33-0.2-0.47-0.25-0.33-0.11-0.64-0.12-0.91-0.14-0.31-0.01-0.61999-0.02-0.88999-0.2-0.28-0.19-0.37-0.46-0.41-0.64-0.02-0.01-0.04-0.01-0.06-0.02-0.26-0.07-0.55002-0.15-0.90002-0.34-0.52-0.29-0.57999-0.68-0.57999-0.89 0.01-0.2 0.09-0.58 0.59-0.81 1.21-0.58 1.63-1.39 1.76-1.74-0.11-0.07-0.24002-0.15-0.36002-0.23l-0.31-0.2c-0.82-0.57-0.67998-1.25-0.57998-1.51 0.16-0.44 0.56998-0.71 1.08-0.71 0.1 0 0.19 0.01 0.28 0.03 0.02 0 0.03002 0.01001 0.05002 0.01001 0-0.31-1e-5 -0.58001 0.01999-0.82001 0.1-1.07 0.48-1.64 0.85-2.06 0.32-0.36 1.23-1.21 2.85-1.21 1.11 0 2.15 0.43 2.84 1.18 0.4 0.47 0.77 1.03 0.86 2.08 0.02 0.28 0.03 0.56001 0.03 0.82001h0.02c0.04-0.02 0.17-0.04001 0.3-0.04001 0.51 0 0.92 0.28001 1.08 0.73001 0.1 0.25 0.24 0.92-0.58 1.5-0.06 0.04-0.17 0.12-0.31 0.2-0.13 0.08-0.25 0.16-0.35 0.23 0.14 0.36 0.57 1.16 1.77 1.75 0.48 0.26 0.58 0.59 0.58 0.83 0 0.25-0.1 0.6-0.58 0.86-0.35 0.19-0.65 0.28-0.9 0.35-0.02 0-0.04 0.01-0.07 0.02-0.05 0.21-0.14 0.45-0.39 0.62-0.29 0.19-0.59 0.2-0.89 0.21-0.28 0.01-0.59 0.03-0.94 0.14-0.12 0.04-0.26 0.13-0.43 0.23-0.42 0.28-1.01 0.65-2.02 0.65zm-3.31-2.51c0.34 0.02 0.78 0.05 1.28 0.21 0.3 0.1 0.54 0.24 0.8 0.4 0.33 0.21 0.64 0.4 1.23 0.4 0.58 0 0.89-0.19 1.24-0.41 0.25-0.15 0.49-0.29 0.78-0.39 0.54-0.17 0.99-0.2 1.3-0.21 0.06-0.19 0.19-0.39 0.43-0.55 0.08-0.05 0.15-0.09 0.24-0.13-1.42-1.08-1.62-2.35-1.63-2.42v-0.04c-0.03-0.19-0.06-0.59 0.32-0.96-0.11-0.05-0.2-0.12-0.26-0.19-0.12-0.12-0.25-0.34-0.22-0.69 0.02-0.42 0.06-0.98 0.02-1.48-0.06-0.67-0.26-0.95-0.49-1.22-0.22-0.24-0.76-0.68-1.71-0.68-1.03 0-1.58 0.53001-1.72 0.69001-0.22 0.25-0.41999 0.54001-0.47999 1.2-0.03 0.37-0.03002 0.84998 0.00998 1.4 0.01 0.05 0.01001 0.11 0.01001 0.14 0.02 0.29-0.11001 0.51-0.23001 0.63-0.05 0.06-0.13998 0.13-0.25998 0.19 0.39 0.37 0.35 0.78 0.32 0.97v0.04c-0.01 0.06-0.21002 1.33-1.62 2.41 0.08 0.04 0.17 0.08 0.25 0.14 0.21 0.16 0.33001 0.37 0.39001 0.55zm8.62-0.36-0.35-0.66s-0.01 0-0.01 0.01l0.36 0.65-0.36-0.65 0.36 0.65z"/>
 <path d="m12 22.75c-5.93 0-10.75-4.82-10.75-10.75s4.82-10.75 10.75-10.75 10.75 4.82 10.75 10.75-4.82 10.75-10.75 10.75zm0-20c-5.1 0-9.25 4.15-9.25 9.25s4.15 9.25 9.25 9.25 9.25-4.15 9.25-9.25-4.15-9.25-9.25-9.25z"/>
</svg>
